!!!COM: Josquin des Prez
!!!CDT: ~1450-1521/08/27
!!!OTL@@LAT: Virgo salutiferi / Ave Maria
!!!OTL2@@LAT: Tu potis es
!!!OTL3@@LAT: Nunc celi regina
!!!AGN: Motet
!!!SCT: NJE 25.13
!!!SCA: New Josquin Edition 25.13
!!!voices: 5
**kern	**text	**kern	**text	**kern	**text	**kern	**text	**kern	**text
*staff5	*staff5	*staff4	*staff4	*staff3	*staff3	*staff2	*staff2	*staff1	*staff1
*Ivox	*	*Ivox	*	*Ivox	*	*Ivox	*	*Ivox	*
*I"Bassus	*	*I"Altus2	*	*I"Tenor	*	*I"Altus1	*	*I"Superius	*
*I'B	*	*I'A2	*	*I'T	*	*I'A1	*	*I'S	*
*>[A,B,C]	*>[A,B,C]	*>[A,B,C]	*>[A,B,C]	*>[A,B,C]	*>[A,B,C]	*>[A,B,C]	*>[A,B,C]	*>[A,B,C]	*>[A,B,C]
*>A	*>A	*>A	*>A	*>A	*>A	*>A	*>A	*>A	*>A
*clefF4	*	*clefGv2	*	*clefGv2	*	*clefGv2	*	*clefG2	*
*k[b-]	*	*k[b-]	*	*k[b-]	*	*k[b-]	*	*k[b-]	*
*M2/1	*	*M2/1	*	*M2/1	*	*M2/1	*	*M2/1	*
*met(C|)	*	*met(C|)	*	*met(C|)	*	*met(C|)	*	*met(C|)	*
=1-	=1-	=1-	=1-	=1-	=1-	=1-	=1-	=1-	=1-
!	!	!	!	!LO:TX:Z=10:X=-40:t=Canon at the upper octave (3 breves)	!	!	!	!	!
0r	.	0G	Vir-	0r	.	0r	.	0r	.
=2	=2	=2	=2	=2	=2	=2	=2	=2	=2
0r	.	2.G/	-go,	0r	.	0G	Vir-	0r	.
.	.	4A/	.	.	.	.	.	.	.
.	.	4B-\	.	.	.	.	.	.	.
.	.	4c\	.	.	.	.	.	.	.
.	.	[2B-\	.	.	.	.	.	.	.
=3	=3	=3	=3	=3	=3	=3	=3	=3	=3
0GG	Vir-	2B-\]	.	0r	.	2.G/	-go,	0r	.
.	.	4A/	.	.	.	.	.	.	.
.	.	4G/	.	.	.	4A/	.	.	.
.	.	1d	.	.	.	4B-\	.	.	.
.	.	.	.	.	.	4c\	.	.	.
.	.	.	.	.	.	[2B-\	.	.	.
=4	=4	=4	=4	=4	=4	=4	=4	=4	=4
2.GG/	-go,	1r	.	0r	.	2B-\]	.	0r	.
.	.	.	.	.	.	4A/	.	.	.
4AA/	.	.	.	.	.	4G/	.	.	.
4BB-/	.	[1D	vir-	.	.	1d	.	.	.
4C/	.	.	.	.	.	.	.	.	.
[2BB-/	.	.	.	.	.	.	.	.	.
=5	=5	=5	=5	=5	=5	=5	=5	=5	=5
2BB-/]	.	1D]	.	0r	.	0r	.	0r	.
4AA/	.	.	.	.	.	.	.	.	.
4GG/	.	.	.	.	.	.	.	.	.
1D	.	2.D/	-go,	.	.	.	.	.	.
.	.	4E/	.	.	.	.	.	.	.
=6	=6	=6	=6	=6	=6	=6	=6	=6	=6
0r	.	4F/	.	0r	.	0D	vir-	0r	.
.	.	4G/	.	.	.	.	.	.	.
.	.	1F	.	.	.	.	.	.	.
.	.	4E/	.	.	.	.	.	.	.
.	.	4D/	.	.	.	.	.	.	.
=7	=7	=7	=7	=7	=7	=7	=7	=7	=7
0D	vir-	0A	.	0r	.	2.D/	-go,	0r	.
.	.	.	.	.	.	4E/	.	.	.
.	.	.	.	.	.	4F/	.	.	.
.	.	.	.	.	.	4G/	.	.	.
.	.	.	.	.	.	[2F/	.	.	.
=8	=8	=8	=8	=8	=8	=8	=8	=8	=8
2.D\	-go,	0r	.	0r	.	2F/]	.	0r	.
.	.	.	.	.	.	4E/	.	.	.
4E\	.	.	.	.	.	4D/	.	.	.
4F\	.	.	.	.	.	1A	.	.	.
4G\	.	.	.	.	.	.	.	.	.
[2F\	.	.	.	.	.	.	.	.	.
=9	=9	=9	=9	=9	=9	=9	=9	=9	=9
2F\]	.	0A	vir-	0r	.	1r	.	0r	.
4E\	.	.	.	.	.	.	.	.	.
4D\	.	.	.	.	.	.	.	.	.
1A	.	.	.	.	.	[1D	vir-	.	.
=10	=10	=10	=10	=10	=10	=10	=10	=10	=10
0r	.	1A	-go	0r	.	1D]	.	0r	.
.	.	1B-	sa-	.	.	1D	-go	.	.
=11	=11	=11	=11	=11	=11	=11	=11	=11	=11
0r	.	1c	-lu-	0r	.	1E	sa-	0r	.
.	.	[1d	-ti-	.	.	1F	-lu-	.	.
=12	=12	=12	=12	=12	=12	=12	=12	=12	=12
0GG	vir-	2d\]	.	0r	.	1.G	-ti-	0r	.
.	.	2d\	-fe-	.	.	.	.	.	.
.	.	[1d	-ri,	.	.	.	.	.	.
.	.	.	.	.	.	2G/	-fe-	.	.
=13	=13	=13	=13	=13	=13	=13	=13	=13	=13
1GG	-go	2d\]	.	0r	.	1G	-ri,	0r	.
.	.	4c\	.	.	.	.	.	.	.
.	.	4B-\	.	.	.	.	.	.	.
1AA	sa-	1c	.	.	.	2E/	sa-	.	.
.	.	.	.	.	.	[2F/	-lu-	.	.
=14	=14	=14	=14	=14	=14	=14	=14	=14	=14
1BB-	-lu-	1d	sa-	0r	.	2F/]	.	0r	.
.	.	.	.	.	.	2.G/	-ti-	.	.
[1C	-ti-	1G	-lu-	.	.	.	.	.	.
.	.	.	.	.	.	4F/	.	.	.
.	.	.	.	.	.	4E/	-fe-	.	.
.	.	.	.	.	.	4D/	.	.	.
=15	=15	=15	=15	=15	=15	=15	=15	=15	=15
2C/]	.	1.c	-ti-	0r	.	1E	-ri,	0r	.
2C/	-fe-	.	.	.	.	.	.	.	.
1C	-ri,	.	.	.	.	1r	.	.	.
.	.	2A/	-fe-	.	.	.	.	.	.
=16	=16	=16	=16	=16	=16	=16	=16	=16	=16
1r	.	0A	-ri,	0r	.	1.c	ge-	0r	.
[1F	ge-	.	.	.	.	.	.	.	.
.	.	.	.	.	.	2B-\	.	.	.
=17	=17	=17	=17	=17	=17	=17	=17	=17	=17
2F\]	.	1.f	ge-	0r	.	2A/	.	0r	.
2E\	.	.	.	.	.	2G/	-ni-	.	.
2D\	.	.	.	.	.	1F	-trix	.	.
2C/	-ni-	2e\	.	.	.	.	.	.	.
=18	=18	=18	=18	=18	=18	=18	=18	=18	=18
1BB-	-trix	2d\	.	0r	.	1B-	in-	0r	.
.	.	2c\	-ni-	.	.	.	.	.	.
1E-i	in-	1B-	-trix	.	.	1G	-tac-	.	.
=19	=19	=19	=19	=19	=19	=19	=19	=19	=19
1C	-tac-	1c	in-	0r	.	1A	-ta	0r	.
1D	-ta	1A	-tac-	.	.	2A/	to-	.	.
.	.	.	.	.	.	[2F/	-nan-	.	.
=20	=20	=20	=20	=20	=20	=20	=20	=20	=20
2D\	to-	1d	-ta	0r	.	2F/]	.	0r	.
1BB-	-nan-	.	.	.	.	4E/	.	.	.
.	.	.	.	.	.	4D/	.	.	.
.	.	2d\	to-	.	.	1D	-tis,	.	.
4AA/	.	[2B-\	-nan-	.	.	.	.	.	.
4GG/	.	.	.	.	.	.	.	.	.
=21	=21	=21	=21	=21	=21	=21	=21	=21	=21
1GG	-tis,	2B-\]	.	0r	.	1r	.	0r	.
.	.	4A/	.	.	.	.	.	.	.
.	.	4G/	.	.	.	.	.	.	.
1r	.	1G	-tis,	.	.	[1B-	U-	.	.
=22	=22	=22	=22	=22	=22	=22	=22	=22	=22
1.G	U-	1r	.	0r	.	2B-\]	.	0r	.
.	.	.	.	.	.	2B-\	-ni-	.	.
.	.	[1d	U-	.	.	2B-\	-ca	.	.
2G\	-ni-	.	.	.	.	2G/	que	.	.
=23	=23	=23	=23	=23	=23	=23	=23	=23	=23
2G\	-ca	2d\]	.	0r	.	1B-	un-	0r	.
2D\	que	2d\	-ni-	.	.	.	.	.	.
[1F	un-	2d\	-ca	.	.	2.A/	-do-	.	.
.	.	2A/	que	.	.	.	.	.	.
.	.	.	.	.	.	4F/	.	.	.
=24	=24	=24	=24	=24	=24	=24	=24	=24	=24
2F\]	.	1.c	un-	0r	.	2A/	.	0r	.
1E-i	-do-	.	.	.	.	1G	.	.	.
4D\	.	[2B-\	-do-	.	.	4F/	.	.	.
4C/	.	.	.	.	.	4E/	.	.	.
=25	=25	=25	=25	=25	=25	=25	=25	=25	=25
0BB-	-si	2B-\]	.	0r	.	2D/	.	0r	.
.	.	4A/	.	.	.	2.f\	.	.	.
.	.	4G/	.	.	.	.	.	.	.
.	.	1F	-si	.	.	.	.	.	.
.	.	.	.	.	.	4e\	.	.	.
.	.	.	.	.	.	4d\	.	.	.
.	.	.	.	.	.	4c\	.	.	.
=26	=26	=26	=26	=26	=26	=26	=26	=26	=26
1r	.	0f	stel-	0r	.	1d	-si	0r	.
[1B-	stel-	.	.	.	.	2r	.	.	.
.	.	.	.	.	.	[2d\	stel-	.	.
=27	=27	=27	=27	=27	=27	=27	=27	=27	=27
1B-]	.	1f	-la	0r	.	4d\]	.	0r	.
.	.	.	.	.	.	4c\	.	.	.
.	.	.	.	.	.	4d\	.	.	.
.	.	.	.	.	.	4e\	.	.	.
1B-	-la	1d	be-	.	.	2f\	.	.	.
.	.	.	.	.	.	[2g\	-la	.	.
=28	=28	=28	=28	=28	=28	=28	=28	=28	=28
1G	be-	1.e	-ni-	0r	.	4g\]	.	0r	.
.	.	.	.	.	.	4f\	.	.	.
.	.	.	.	.	.	4e\	.	.	.
.	.	.	.	.	.	4d\	.	.	.
[1A	-ni-	.	.	.	.	1c	.	.	.
.	.	2e\	-gna	.	.	.	.	.	.
=29	=29	=29	=29	=29	=29	=29	=29	=29	=29
2A\]	.	2.c\	ma-	0r	.	1r	.	0r	.
2A\	-gna	.	.	.	.	.	.	.	.
.	.	4A/	.	.	.	.	.	.	.
2.F\	ma-	1A	-ris,	.	.	2r	.	.	.
.	.	.	.	.	.	2c\	be-	.	.
4D\	.	.	.	.	.	.	.	.	.
=30	=30	=30	=30	=30	=30	=30	=30	=30	=30
1D	-ris,	1r	.	0r	.	2d\	-ni-	0r	.
.	.	.	.	.	.	2.f\	.	.	.
1r	.	[1d	stel-	.	.	.	.	.	.
.	.	.	.	.	.	4e\	.	.	.
.	.	.	.	.	.	4d\	.	.	.
.	.	.	.	.	.	4c\	.	.	.
=31	=31	=31	=31	=31	=31	=31	=31	=31	=31
0G	stel-	1d]	.	0r	.	4B-\	.	0r	.
.	.	.	.	.	.	4A/	.	.	.
.	.	.	.	.	.	2.B-\	.	.	.
.	.	1d	-la	.	.	.	.	.	.
.	.	.	.	.	.	4A/	.	.	.
.	.	.	.	.	.	4B-\	.	.	.
.	.	.	.	.	.	4c\	.	.	.
=32	=32	=32	=32	=32	=32	=32	=32	=32	=32
1G	-la	1B-	be-	0r	.	2d\	-gna	0r	.
.	.	.	.	.	.	2.e\	ma-	.	.
1E	be-	[1c	-ni-	.	.	.	.	.	.
.	.	.	.	.	.	4d\	.	.	.
.	.	.	.	.	.	4c\	.	.	.
.	.	.	.	.	.	4B-\	.	.	.
=33	=33	=33	=33	=33	=33	=33	=33	=33	=33
1.F	-ni-	2c\]	.	0r	.	1A	-ris,	0r	.
.	.	2c\	-gna	.	.	.	.	.	.
.	.	2.A/	ma-	.	.	1r	.	.	.
2F\	-gna	.	.	.	.	.	.	.	.
.	.	4F/	.	.	.	.	.	.	.
=34	=34	=34	=34	=34	=34	=34	=34	=34	=34
2.D\	ma-	1F	-ris,	0r	.	2r	.	0r	.
.	.	.	.	.	.	2A/	be-	.	.
4BB-/	.	.	.	.	.	.	.	.	.
1BB-	-ris,	1r	.	.	.	2B-\	-ni-	.	.
.	.	.	.	.	.	[2d\	.	.	.
=35	=35	=35	=35	=35	=35	=35	=35	=35	=35
1r	.	0B-	stel-	0r	.	4d\]	.	0r	.
.	.	.	.	.	.	4c\	.	.	.
.	.	.	.	.	.	4B-\	.	.	.
.	.	.	.	.	.	4A/	.	.	.
[1E-	stel-	.	.	.	.	4G/	.	.	.
.	.	.	.	.	.	4F/	.	.	.
.	.	.	.	.	.	[2G/	.	.	.
=36	=36	=36	=36	=36	=36	=36	=36	=36	=36
1E-]	.	1B-	-la	0r	.	4G/]	.	0r	.
.	.	.	.	.	.	4F/	.	.	.
.	.	.	.	.	.	4G/	.	.	.
.	.	.	.	.	.	4A/	.	.	.
1E-i	-la	1G	be-	.	.	2B-\	-gna	.	.
.	.	.	.	.	.	[2c\	ma-	.	.
=37	=37	=37	=37	=37	=37	=37	=37	=37	=37
1C	be-	1.A	-ni-	0r	.	4c\]	.	0r	.
.	.	.	.	.	.	4B-\	.	.	.
.	.	.	.	.	.	4A/	.	.	.
.	.	.	.	.	.	4G/	.	.	.
[1D	-ni-	.	.	.	.	1F	-ris,	.	.
.	.	2A/	-gna	.	.	.	.	.	.
=38	=38	=38	=38	=38	=38	=38	=38	=38	=38
2D\]	.	2.F/	ma-	0r	.	1r	.	0r	.
2D\	-gna	.	.	.	.	.	.	.	.
.	.	4D/	.	.	.	.	.	.	.
2.BB-/	ma-	2D/	-ris,	.	.	2r	.	.	.
.	.	[2d\	stel-	.	.	2F/	stel-	.	.
4GG/	.	.	.	.	.	.	.	.	.
=39	=39	=39	=39	=39	=39	=39	=39	=39	=39
2GG/	-ris,	2d\]	.	0r	.	2G/	-la	0r	.
2D\	be-	2d\	-la	.	.	2F/	be-	.	.
2E-i\	-ni-	2c\	be-	.	.	2G/	-ni-	.	.
[2D\	.	[2B-\	-ni-	.	.	[2F/	.	.	.
=40	=40	=40	=40	=40	=40	=40	=40	=40	=40
2D\]	.	2B-\]	.	0r	.	2F/]	.	0r	.
4C/	.	4A/	.	.	.	4E/	.	.	.
4BB-/	.	4G/	.	.	.	4D/	.	.	.
1AA	.	4F#i/	.	.	.	1C	-gna	.	.
.	.	4G/	.	.	.	.	.	.	.
.	.	4A/	.	.	.	.	.	.	.
.	.	4F#i/	.	.	.	.	.	.	.
=41	=41	=41	=41	=41	=41	=41	=41	=41	=41
0GG	-gna	1G	-gna,	[0B-	A-	1D	ma-	0r	.
.	.	2r	.	.	.	[1G	.	.	.
.	.	[2d\	be-	.	.	.	.	.	.
=42	=42	=42	=42	=42	=42	=42	=42	=42	=42
2r	.	4d\]	.	0B-]	.	2G/]	.	0r	.
.	.	4e\	.	.	.	.	.	.	.
2D\	ma-	2f\	-ni-	.	.	2F/	.	.	.
2E-i\	.	2B-\	-gna	.	.	2G/	.	.	.
[2D\	.	[2f\	ma-	.	.	2B-\	.	.	.
=43	=43	=43	=43	=43	=43	=43	=43	=43	=43
2D\]	.	2f\]	.	0F	-ve	1A	-ris,	0r	.
4C/	.	4e\	.	.	.	.	.	.	.
4BB-/	.	4d\	.	.	.	.	.	.	.
1AA	.	1c	.	.	.	2r	.	.	.
.	.	.	.	.	.	2A/	be-	.	.
=44	=44	=44	=44	=44	=44	=44	=44	=44	=44
2GG/	-ris,	0B-	-ris,	0G	Ma-	2.B-\	-ni-	[0b-	A-
2.G\	be-	.	.	.	.	.	.	.	.
.	.	.	.	.	.	4c\	.	.	.
.	.	.	.	.	.	2d\	.	.	.
4A\	.	.	.	.	.	.	.	.	.
[2B-\	-ni-	.	.	.	.	2G/	-gna	.	.
=45	=45	=45	=45	=45	=45	=45	=45	=45	=45
4B-\]	.	2r	.	0G	-ri-	1B-	ma-	0b-]	.
4A\	.	.	.	.	.	.	.	.	.
4G\	.	1B-	ma-	.	.	.	.	.	.
4F\	.	.	.	.	.	.	.	.	.
1E-i	-gna	.	.	.	.	2G/	.	.	.
.	.	2G/	.	.	.	[2B-\	.	.	.
=46	=46	=46	=46	=46	=46	=46	=46	=46	=46
0D	ma-	1B-	.	0d	.	2B-\]	.	0f	-ve
.	.	.	.	.	.	4A/	.	.	.
.	.	.	.	.	.	4G/	.	.	.
.	.	1A	-ris,	.	.	1F	-ris,	.	.
=47	=47	=47	=47	=47	=47	=47	=47	=47	=47
[0C	.	1.c	ma-	[0e-i	.	1.E-i	ma-	0g	Ma-
.	.	2B-\	.	.	.	4D/	.	.	.
.	.	.	.	.	.	4C/	.	.	.
=48	=48	=48	=48	=48	=48	=48	=48	=48	=48
0C]	.	1G	.	0e-]	.	2.E-i/	.	0g	-ri-
.	.	.	.	.	.	4F/	.	.	.
.	.	2E-i/	.	.	.	2.G/	.	.	.
.	.	[2G/	.	.	.	.	.	.	.
.	.	.	.	.	.	4A/	.	.	.
=49	=49	=49	=49	=49	=49	=49	=49	=49	=49
0BB-	-ris,	2G/]	.	0d	-a,	2.B-\	.	0dd	.
.	.	4F/	.	.	.	.	.	.	.
.	.	4E-i/	.	.	.	4A/	.	.	.
.	.	1D	.	.	.	2F/	.	.	.
.	.	.	.	.	.	[2G/	.	.	.
=50	=50	=50	=50	=50	=50	=50	=50	=50	=50
[0C	.	4C/	.	0r	.	2G/]	.	[0ee-i	.
.	.	4D/	.	.	.	.	.	.	.
.	.	4E-i/	.	.	.	2C/	.	.	.
.	.	4F/	.	.	.	.	.	.	.
.	.	2G/	.	.	.	2.E-i/	.	.	.
.	.	[2c\	.	.	.	.	.	.	.
.	.	.	.	.	.	4F/	.	.	.
=51	=51	=51	=51	=51	=51	=51	=51	=51	=51
0C]	.	4c\]	.	0r	.	1G	-ris,	0ee-]	.
.	.	4B-\	.	.	.	.	.	.	.
.	.	1B-	.	.	.	.	.	.	.
.	.	.	.	.	.	1E-i	.	.	.
.	.	2A/	.	.	.	.	.	.	.
=52	=52	=52	=52	=52	=52	=52	=52	=52	=52
1.BB-	Quam	[0B-	-ris,	0r	.	1r	.	0dd	-a,
.	.	.	.	.	.	[1F	Quam	.	.
2C/	.	.	.	.	.	.	.	.	.
=53	=53	=53	=53	=53	=53	=53	=53	=53	=53
1D	.	0B-]	.	0r	.	1F]	.	0r	.
2.E-i\	re-	.	.	.	.	1G	re-	.	.
4D\	.	.	.	.	.	.	.	.	.
=54	=54	=54	=54	=54	=54	=54	=54	=54	=54
1BB-	-rum	1r	.	0r	.	1F	-rum	0r	.
2r	.	[1B-	Quam	.	.	[1G	pa-	.	.
[2B-\	pa-	.	.	.	.	.	.	.	.
=55	=55	=55	=55	=55	=55	=55	=55	=55	=55
2B-\]	.	1B-]	.	0r	.	1G]	.	0r	.
4A\	.	.	.	.	.	.	.	.	.
4G\	.	.	.	.	.	.	.	.	.
1A	-ter,	1c	re-	.	.	1F	-ter,	.	.
=56	=56	=56	=56	=56	=56	=56	=56	=56	=56
1r	.	1B-	-rum	0r	.	2r	.	0r	.
.	.	.	.	.	.	1B-	ut	.	.
[1F	Quam	[1c	pa-	.	.	.	.	.	.
.	.	.	.	.	.	4A/	.	.	.
.	.	.	.	.	.	4G/	.	.	.
=57	=57	=57	=57	=57	=57	=57	=57	=57	=57
1F]	.	1c]	.	0r	.	1A	.	0r	.
1G	re-	1B-	-ter,	.	.	1r	.	.	.
=58	=58	=58	=58	=58	=58	=58	=58	=58	=58
1F	-rum	0r	.	0r	.	2r	.	0r	.
.	.	.	.	.	.	1f	lap-	.	.
[1G	pa-	.	.	.	.	.	.	.	.
.	.	.	.	.	.	4e\	.	.	.
.	.	.	.	.	.	4d\	.	.	.
=59	=59	=59	=59	=59	=59	=59	=59	=59	=59
1G]	.	1B-	ut	0r	.	4e\	.	0r	.
.	.	.	.	.	.	4f\	.	.	.
.	.	.	.	.	.	1B-	.	.	.
1F	-ter,	[1c	lap-	.	.	.	.	.	.
.	.	.	.	.	.	4A/	.	.	.
.	.	.	.	.	.	4G/	.	.	.
=60	=60	=60	=60	=60	=60	=60	=60	=60	=60
2r	.	1c]	.	0r	.	1A	-so	0r	.
2F\	ut	.	.	.	.	.	.	.	.
[1G	lap-	1B-	-so	.	.	2r	.	.	.
.	.	.	.	.	.	[2B-\	suc-	.	.
=61	=61	=61	=61	=61	=61	=61	=61	=61	=61
1G]	.	2r	.	0r	.	2B-\]	.	0r	.
.	.	2B-\	suc-	.	.	4A/	.	.	.
.	.	.	.	.	.	4G/	.	.	.
1F	-so	[1f	-cu-	.	.	4A/	.	.	.
.	.	.	.	.	.	4B-\	.	.	.
.	.	.	.	.	.	4c\	.	.	.
.	.	.	.	.	.	4A/	.	.	.
=62	=62	=62	=62	=62	=62	=62	=62	=62	=62
1BB-	suc-	2f\]	.	0d	gra-	1B-	.	0r	.
.	.	2f\	-re-	.	.	.	.	.	.
[1F	-cu-	1f	-ret	.	.	[1A	-cur-	.	.
=63	=63	=63	=63	=63	=63	=63	=63	=63	=63
2F\]	.	1r	.	1c	-ti-	2A/]	.	0r	.
2E\	-re-	.	.	.	.	2G/	.	.	.
1D	-ret	2r	.	1B-	-a	[1F	-re-	.	.
.	.	[2B-\	or-	.	.	.	.	.	.
=64	=64	=64	=64	=64	=64	=64	=64	=64	=64
2.C/	or-	2B-\]	.	0c	ple-	2F/]	.	0r	.
.	.	4A/	.	.	.	4E/	.	.	.
4BB-/	.	4G/	.	.	.	4D/	.	.	.
1C	.	4A/	.	.	.	1E	-ret	.	.
.	.	4B-\	.	.	.	.	.	.	.
.	.	4c\	.	.	.	.	.	.	.
.	.	4A/	.	.	.	.	.	.	.
=65	=65	=65	=65	=65	=65	=65	=65	=65	=65
0BB-	-bi,	2B-\	-bi,	0d	-na,	1.F	or-	0dd	gra-
.	.	2F/	suc-	.	.	.	.	.	.
.	.	[1f	-cur-	.	.	.	.	.	.
.	.	.	.	.	.	2D/	.	.	.
=66	=66	=66	=66	=66	=66	=66	=66	=66	=66
1.r	.	2f\]	.	0r	.	1A	.	1cc	-ti-
.	.	2e\	-re-	.	.	.	.	.	.
.	.	1d	-ret	.	.	1B-	.	1b-	-a
[2B-\	or-	.	.	.	.	.	.	.	.
=67	=67	=67	=67	=67	=67	=67	=67	=67	=67
2B-\]	.	2.c\	or	0r	.	0F	-bi,	0cc	ple-
4A\	.	.	.	.	.	.	.	.	.
4G\	.	4B-\	.	.	.	.	.	.	.
4A\	.	1c	.	.	.	.	.	.	.
4B-\	.	.	.	.	.	.	.	.	.
4c\	.	.	.	.	.	.	.	.	.
4A\	.	.	.	.	.	.	.	.	.
=68	=68	=68	=68	=68	=68	=68	=68	=68	=68
0B-	-bi,	4B-\	.	0r	.	1r	.	0dd	-na,
.	.	4c\	.	.	.	.	.	.	.
.	.	4d\	.	.	.	.	.	.	.
.	.	4e\	.	.	.	.	.	.	.
.	.	2f\	.	.	.	1B-	Non-	.	.
.	.	[2g\	.	.	.	.	.	.	.
=69	=69	=69	=69	=69	=69	=69	=69	=69	=69
1r	.	2g\]	.	0r	.	1B-	-dum	0r	.
.	.	4f\	.	.	.	.	.	.	.
.	.	4e\	.	.	.	.	.	.	.
2r	.	1d	bi,	.	.	1B-	di-	.	.
[2B-\	or-	.	.	.	.	.	.	.	.
=70	=70	=70	=70	=70	=70	=70	=70	=70	=70
2B-\]	.	0r	.	0r	.	1.c	-stinc-	0r	.
4A\	.	.	.	.	.	.	.	.	.
4G\	.	.	.	.	.	.	.	.	.
4A\	.	.	.	.	.	.	.	.	.
4B-\	.	.	.	.	.	.	.	.	.
4c\	.	.	.	.	.	4B-\	.	.	.
4A\	.	.	.	.	.	4c\	.	.	.
=71	=71	=71	=71	=71	=71	=71	=71	=71	=71
1B-	-bi,	4B-\	Non-	0r	.	2d\	.	0r	.
.	.	4c\	.	.	.	.	.	.	.
.	.	4d\	.	.	.	4B-\	.	.	.
.	.	4e\	.	.	.	4c\	.	.	.
1BB-	Non-	2f\	.	.	.	4d\	.	.	.
.	.	.	.	.	.	4e\	.	.	.
.	.	2B-\	-dum	.	.	2f\	.	.	.
=72	=72	=72	=72	=72	=72	=72	=72	=72	=72
1BB-	-dum	2.f\	di-	0r	.	4B-\	.	0r	.
.	.	.	.	.	.	4c\	.	.	.
.	.	.	.	.	.	4d\	.	.	.
.	.	4e\	.	.	.	4e\	.	.	.
1BB-	di-	4d\	.	.	.	2f\	.	.	.
.	.	4c\	.	.	.	.	.	.	.
.	.	[2B-\	-stinc-	.	.	[2g\	.	.	.
=73	=73	=73	=73	=73	=73	=73	=73	=73	=73
1.C	-stinc-	4B-\]	.	0r	.	4g\]	.	0r	.
.	.	4A/	.	.	.	4f\	.	.	.
.	.	4G/	.	.	.	1f	.	.	.
.	.	4F/	.	.	.	.	.	.	.
.	.	1G	.	.	.	.	.	.	.
4BB-/	.	.	.	.	.	2e\	.	.	.
4C/	.	.	.	.	.	.	.	.	.
=74	=74	=74	=74	=74	=74	=74	=74	=74	=74
0D	-to	1F	-to	0r	.	1f	-to	0r	.
.	.	1r	.	.	.	1r	.	.	.
=75	=75	=75	=75	=75	=75	=75	=75	=75	=75
1r	.	1.D	ju-	0r	.	1.F	jus-	0r	.
[1BB-	ju-	.	.	.	.	.	.	.	.
.	.	2D/	-se-	.	.	2F/	-se-	.	.
=76	=76	=76	=76	=76	=76	=76	=76	=76	=76
2BB-/]	.	1D	-rat	0r	.	1G	-rat	0r	.
2BB-/	-se-	.	.	.	.	.	.	.	.
1C	-rat	1E	.	.	.	1A	.	.	.
=77	=77	=77	=77	=77	=77	=77	=77	=77	=77
2.D\	es-	2.F/	es-	0r	.	2.B-\	es-	0r	.
4C/	-se	4E/	.	.	.	4A/	.	.	.
2BB-/	cha-	2D/	.	.	.	2G/	.	.	.
2AA/	.	2C/	-se	.	.	2F/	-se	.	.
=78	=78	=78	=78	=78	=78	=78	=78	=78	=78
1GG	-os,	2D/	cha-	0d	gra-	1G	cha-	0r	.
.	.	1B-	.	.	.	.	.	.	.
[1F	ju-	.	.	.	.	1D	-os,	.	.
.	.	4A/	.	.	.	.	.	.	.
.	.	4G/	.	.	.	.	.	.	.
=79	=79	=79	=79	=79	=79	=79	=79	=79	=79
2F\]	.	1A	-os,	1c	-ti-	0r	.	0r	.
2F\	-se-	.	.	.	.	.	.	.	.
1G	-rat	1r	.	1B-	-a	.	.	.	.
=80	=80	=80	=80	=80	=80	=80	=80	=80	=80
2.A\	es-	2r	.	0c	ple-	0r	.	0r	.
.	.	1A	es-	.	.	.	.	.	.
4G\	-se	.	.	.	.	.	.	.	.
2F\	cha-	.	.	.	.	.	.	.	.
2E\	.	2G/	-se	.	.	.	.	.	.
=81	=81	=81	=81	=81	=81	=81	=81	=81	=81
0D	-os,	1B-	cha-	0d	-na,	1r	.	0dd	gra-
.	.	1A	-os,	.	.	[1f	jus-	.	.
=82	=82	=82	=82	=82	=82	=82	=82	=82	=82
0r	.	0r	.	0r	.	2f\]	.	1cc	-ti-
.	.	.	.	.	.	2f\	-se-	.	.
.	.	.	.	.	.	1g	-rat	1b-	-a
=83	=83	=83	=83	=83	=83	=83	=83	=83	=83
0r	.	1r	.	0r	.	2.a\	es-	0cc	ple-
.	.	.	.	.	.	4g\	-se	.	.
.	.	1A	Jes-	.	.	2f\	cha-	.	.
.	.	.	.	.	.	2e\	.	.	.
=84	=84	=84	=84	=84	=84	=84	=84	=84	=84
1D	Jes-	1F	-se-	0r	.	0d	-os,	0dd	-na,
1BB-	-se-	1G	-ae-	.	.	.	.	.	.
=85	=85	=85	=85	=85	=85	=85	=85	=85	=85
1C	-ae-	1A	-que	0r	.	0r	.	0r	.
1D	-que	[1F	sa-	.	.	.	.	.	.
=86	=86	=86	=86	=86	=86	=86	=86	=86	=86
1.BB-	sa-	2F/]	.	0r	.	0r	.	0r	.
.	.	2D/	.	.	.	.	.	.	.
.	.	1D	-cro	.	.	.	.	.	.
2GG/	.	.	.	.	.	.	.	.	.
=87	=87	=87	=87	=87	=87	=87	=87	=87	=87
1GG	-cro	1r	.	0r	.	0r	.	0r	.
1r	.	1D	na-	.	.	.	.	.	.
=88	=88	=88	=88	=88	=88	=88	=88	=88	=88
1GG	na-	0G	-sci	0r	.	0r	.	0r	.
[1C	-sci	.	.	.	.	.	.	.	.
=89	=89	=89	=89	=89	=89	=89	=89	=89	=89
1C]	.	1G	de	0r	.	0r	.	0r	.
1C	de	[1c	san-	.	.	.	.	.	.
=90	=90	=90	=90	=90	=90	=90	=90	=90	=90
1.F	san-	2c\]	.	0r	.	0r	.	0r	.
.	.	2c\	-gui-	.	.	.	.	.	.
.	.	2.c\	-ne	.	.	.	.	.	.
2F\	-gui-	.	.	.	.	.	.	.	.
.	.	4B-\	.	.	.	.	.	.	.
=91	=91	=91	=91	=91	=91	=91	=91	=91	=91
2.F\	-ne	2c\	.	0r	.	0r	.	0r	.
.	.	2.d\	gen-	.	.	.	.	.	.
4E\	.	.	.	.	.	.	.	.	.
2F\	.	.	.	.	.	.	.	.	.
.	.	4c\	.	.	.	.	.	.	.
[2G\	gen-	4B-\	.	.	.	.	.	.	.
.	.	4A/	.	.	.	.	.	.	.
=92	=92	=92	=92	=92	=92	=92	=92	=92	=92
4G\]	.	2B-\	.	0d	-Do-	0r	.	0r	.
4F\	.	.	.	.	.	.	.	.	.
2.D\	.	2A/	.	.	.	.	.	.	.
.	.	2B-\	.	.	.	.	.	.	.
4E\	.	.	.	.	.	.	.	.	.
[2F\	.	[2A/	.	.	.	.	.	.	.
=93	=93	=93	=93	=93	=93	=93	=93	=93	=93
4F\]	.	4A/]	.	1c	-mi-	1r	.	0r	.
4E\	.	4G/	.	.	.	.	.	.	.
4D\	.	1G	.	.	.	.	.	.	.
4C/	.	.	.	.	.	.	.	.	.
1D	.	.	.	1B-	-nus	1d	de	.	.
.	.	2F/	.	.	.	.	.	.	.
=94	=94	=94	=94	=94	=94	=94	=94	=94	=94
0C	-tis,	1G	-tis,	0c	te-	2e\	san-	0r	.
.	.	.	.	.	.	2c\	.	.	.
.	.	2r	.	.	.	2.e\	-gui-	.	.
.	.	2c\	de	.	.	.	.	.	.
.	.	.	.	.	.	4f\	.	.	.
=95	=95	=95	=95	=95	=95	=95	=95	=95	=95
0r	.	2B-\	san-	0G	-cum,	2.g\	-ne	0dd	-Do-
.	.	2G/	.	.	.	.	.	.	.
.	.	.	.	.	.	4f\	.	.	.
.	.	2.B-\	-gui-	.	.	4d\	.	.	.
.	.	.	.	.	.	4c\	.	.	.
.	.	.	.	.	.	4d\	.	.	.
.	.	4A/	.	.	.	4e\	.	.	.
=96	=96	=96	=96	=96	=96	=96	=96	=96	=96
0r	.	2F/	-ne	0r	.	4f\	.	1cc	-mi-
.	.	.	.	.	.	4e\	.	.	.
.	.	2A/	.	.	.	4d\	.	.	.
.	.	.	.	.	.	4c\	.	.	.
.	.	1G	gen-	.	.	1d	gen-	1b-	-nus
=97	=97	=97	=97	=97	=97	=97	=97	=97	=97
0r	.	1C	-tis,	0r	.	0c	-tis,	0cc	te-
.	.	1c	Et	.	.	.	.	.	.
=98	=98	=98	=98	=98	=98	=98	=98	=98	=98
1C	Et	1c	ma-	0r	.	1r	.	0g	-cum,
1C	ma-	1c	-trem	.	.	1g	Et	.	.
=99	=99	=99	=99	=99	=99	=99	=99	=99	=99
1C	-trem	1.G	sta-	0r	.	1g	ma-	0r	.
[1GG	sta-	.	.	.	.	1g	-trem	.	.
.	.	2G/	-tu-	.	.	.	.	.	.
=100	=100	=100	=100	=100	=100	=100	=100	=100	=100
2GG/]	.	1G	-it	0r	.	1.d	sta-	0r	.
2GG/	-tu-	.	.	.	.	.	.	.	.
1GG	-it	1B-	vir-	.	.	.	.	.	.
.	.	.	.	.	.	2d\	-tu-	.	.
=101	=101	=101	=101	=101	=101	=101	=101	=101	=101
2r	.	1.B-	-gi-	0r	.	0d	-it	0r	.
2G\	vir-	.	.	.	.	.	.	.	.
2G\	-gi-	.	.	.	.	.	.	.	.
2G\	-ni-	2B-\	-ni-	.	.	.	.	.	.
=102	=102	=102	=102	=102	=102	=102	=102	=102	=102
2.F\	-ta	4A/	-ta	0A	Do-	0r	.	0r	.
.	.	4G/	.	.	.	.	.	.	.
.	.	4F/	.	.	.	.	.	.	.
4E\	.	4E/	.	.	.	.	.	.	.
2D\	.	2F/	.	.	.	.	.	.	.
[2C/	.	[2E/	.	.	.	.	.	.	.
=103	=103	=103	=103	=103	=103	=103	=103	=103	=103
4C/]	.	4E/]	.	1G	-mi-	1r	.	0r	.
4BB-/	.	4D/	te	.	.	.	.	.	.
2GG/	te	1D	fru-	.	.	.	.	.	.
1AA	fru-	.	.	1F	-nus	1c	vir-	.	.
.	.	2C/	.	.	.	.	.	.	.
=104	=104	=104	=104	=104	=104	=104	=104	=104	=104
1GG	-i,	2D/	-i,	0G	te-	2B-\	-gi-	0r	.
.	.	2.d\	vir-	.	.	2G/	-ni-	.	.
2r	.	.	.	.	.	1B-	-ta-	.	.
.	.	4c\	.	.	.	.	.	.	.
2G\	vir-	4d\	.	.	.	.	.	.	.
.	.	4e\	.	.	.	.	.	.	.
=105	=105	=105	=105	=105	=105	=105	=105	=105	=105
2F\	-gi-	2.f\	-gi-	0D	-cum,	2A/	-te	0a	Do-
2D\	-ni-	.	.	.	.	2.F/	fru-	.	.
.	.	4e\	.	.	.	.	.	.	.
2.F\	-ta-	4d\	.	.	.	.	.	.	.
.	.	4c\	.	.	.	4G/	.	.	.
.	.	2d\	-ni-	.	.	4A/	.	.	.
4E\	.	.	.	.	.	4B-\	.	.	.
=106	=106	=106	=106	=106	=106	=106	=106	=106	=106
2C/	.	2e-i\	-ta-	0r	.	2c\	.	1g	-mi-
2E-i\	-te	2c\	-te	.	.	2G/	.	.	.
1D	fru-	[1d	fru-	.	.	1A	.	1f	-nus
=107	=107	=107	=107	=107	=107	=107	=107	=107	=107
1GG	-i,	2d\]	.	1.G	te-	[0G	-i,	0g	te-
.	.	2c\	.	.	.	.	.	.	.
1r	.	[1B-	.	.	.	.	.	.	.
.	.	.	.	2A/	.	.	.	.	.
=108	=108	=108	=108	=108	=108	=108	=108	=108	=108
1.GG	fru-	2B-\]	.	[0B-l	-cum.	0G]	.	[0dl	-cum.
.	.	2A/	.	.	.	.	.	.	.
.	.	1G	.	.	.	.	.	.	.
2AA/	.	.	.	.	.	.	.	.	.
=109	=109	=109	=109	=109	=109	=109	=109	=109	=109
[0BB-l	-i.	1F	.	0B-_	.	1.D	fru-	0d_	.
.	.	1G	.	.	.	.	.	.	.
.	.	.	.	.	.	2E/	.	.	.
=110	=110	=110	=110	=110	=110	=110	=110	=110	=110
0BB-]	.	0Dl	-i.	0B-]	.	0Fl	-i.	0d]	.
!!LO:LB:i:g=z
=111||	=111||	=111||	=111||	=111||	=111||	=111||	=111||	=111||	=111||
*>B	*>B	*>B	*>B	*>B	*>B	*>B	*>B	*>B	*>B
*clefF4	*	*clefGv2	*	*clefGv2	*	*clefGv2	*	*clefG2	*
*k[b-]	*	*k[b-]	*	*k[b-]	*	*k[b-]	*	*k[b-]	*
*M2/1	*	*M2/1	*	*M2/1	*	*M2/1	*	*M2/1	*
*met(C|)	*	*met(C|)	*	*met(C|)	*	*met(C|)	*	*met(C|)	*
!!section: Secunda pars: Tu potis es
!!!OMD: Secunda pars: Tu potis es
!	!	!	!	!LO:TX:Z=10:X=-40:t=Canon at the upper octave (2 breves)	!	!	!	!	!
0r	.	0r	.	0r	.	0c	Tu	0r	.
=112	=112	=112	=112	=112	=112	=112	=112	=112	=112
0r	.	0r	.	0r	.	1c	po-	0r	.
.	.	.	.	.	.	1c	-tis	.	.
=113	=113	=113	=113	=113	=113	=113	=113	=113	=113
0r	.	0F	Tu	0r	.	2.c\	es-	0r	.
.	.	.	.	.	.	4B-\	.	.	.
.	.	.	.	.	.	2c\	.	.	.
.	.	.	.	.	.	[2d\	-pri-	.	.
=114	=114	=114	=114	=114	=114	=114	=114	=114	=114
0r	.	1F	po-	0r	.	2d\]	.	0r	.
.	.	.	.	.	.	4c\	.	.	.
.	.	.	.	.	.	4B-\	.	.	.
.	.	1F	-tis	.	.	1A	-mae,	.	.
=115	=115	=115	=115	=115	=115	=115	=115	=115	=115
0BB-	Tu	2.F/	es-	0r	.	1r	.	0r	.
.	.	4E/	.	.	.	.	.	.	.
.	.	2F/	.	.	.	[1D	po-	.	.
.	.	[2G/	-pri-	.	.	.	.	.	.
=116	=116	=116	=116	=116	=116	=116	=116	=116	=116
1BB-	po-	2G/]	.	0r	.	1D]	.	0r	.
.	.	4F/	.	.	.	.	.	.	.
.	.	4E/	.	.	.	.	.	.	.
1BB-	-tis	1D	-mae,	.	.	[1d	.	.	.
=117	=117	=117	=117	=117	=117	=117	=117	=117	=117
2.BB-/	es-	2r	.	0r	.	1d]	.	0r	.
.	.	1D	pri-	.	.	.	.	.	.
4AA/	.	.	.	.	.	.	.	.	.
2BB-/	.	.	.	.	.	1G	-tis	.	.
[2C/	-pri-	[2E-/	.	.	.	.	.	.	.
=118	=118	=118	=118	=118	=118	=118	=118	=118	=118
2C/]	.	2E-/]	.	0r	.	1c	.	0r	.
4BB-/	.	4D/	.	.	.	.	.	.	.
4AA/	.	4C/	.	.	.	.	.	.	.
2.GG/	.	2E-i/	.	.	.	2.B-\	es	.	.
.	.	[2D/	.	.	.	.	.	.	.
4AA/	.	.	.	.	.	4c\	.	.	.
=119	=119	=119	=119	=119	=119	=119	=119	=119	=119
2.BB-/	.	4D/]	.	0r	.	4d\	.	0r	.
.	.	4C/	.	.	.	4e-i\	.	.	.
.	.	4D/	.	.	.	1d	pri-	.	.
4C/	.	4E/	.	.	.	.	.	.	.
1D	-mae,	[1F	-mae,	.	.	.	.	.	.
.	.	.	.	.	.	4c\	.	.	.
.	.	.	.	.	.	4B-\	.	.	.
=120	=120	=120	=120	=120	=120	=120	=120	=120	=120
1r	.	1F]	.	0r	.	2.A/	.	0r	.
.	.	.	.	.	.	4G/	.	.	.
[1D	sce-	1r	.	.	.	1A	-mae,	.	.
=121	=121	=121	=121	=121	=121	=121	=121	=121	=121
1D]	.	0F	sce-	0r	.	1r	.	0r	.
1D	-lus	.	.	.	.	[1f	sce-	.	.
=122	=122	=122	=122	=122	=122	=122	=122	=122	=122
1D	ex-	1F	-lus	0r	.	1f]	.	0r	.
2.D\	-pur-	1F	ex-	.	.	2f\	-lus	.	.
.	.	.	.	.	.	[2f\	ex-	.	.
4C/	.	.	.	.	.	.	.	.	.
=123	=123	=123	=123	=123	=123	=123	=123	=123	=123
2D\	.	2F/	-pur-	0r	.	2f\]	.	0r	.
1E-i	-ga-	1G	-ga-	.	.	2B-\	-pur-	.	.
.	.	.	.	.	.	1e-i	-ga-	.	.
4D\	.	4F/	.	.	.	.	.	.	.
4C/	.	4E-i/	.	.	.	.	.	.	.
=124	=124	=124	=124	=124	=124	=124	=124	=124	=124
2.BB-/	-re	2G/	-re	0r	.	2.d\	-re	0r	.
.	.	2.F/	pa-	.	.	.	.	.	.
4C/	.	.	.	.	.	4e\	.	.	.
4D\	.	.	.	.	.	2f\	.	.	.
4E\	.	4G/	.	.	.	.	.	.	.
[2F\	.	4A/	.	.	.	4F/	pa-	.	.
.	.	4B-\	.	.	.	4G/	.	.	.
=125	=125	=125	=125	=125	=125	=125	=125	=125	=125
2F\]	.	2.c\	.	0r	.	4A/	.	0r	.
.	.	.	.	.	.	4B-\	.	.	.
4C/	pa-	.	.	.	.	1c	.	.	.
4D\	.	4B-\	.	.	.	.	.	.	.
4E\	.	4G/	-ren-	.	.	.	.	.	.
4F\	.	4A/	.	.	.	.	.	.	.
[2G\	.	4B-\	.	.	.	4G/	-ren-	.	.
.	.	4c\	.	.	.	4A/	.	.	.
=126	=126	=126	=126	=126	=126	=126	=126	=126	=126
2G\]	.	4d\	.	0r	.	4B-\	.	0r	.
.	.	4e\	.	.	.	4c\	.	.	.
2F\	.	1f	.	.	.	1d	.	.	.
2.D\	-ren-	.	.	.	.	.	.	.	.
.	.	4e\	.	.	.	4c\	.	.	.
4E\	.	4d\	.	.	.	4B-\	.	.	.
=127	=127	=127	=127	=127	=127	=127	=127	=127	=127
0F	-tis,	1c	-tis,	0r	.	1A	-tis,	0r	.
.	.	1r	.	.	.	1r	.	.	.
=128	=128	=128	=128	=128	=128	=128	=128	=128	=128
1r	.	0c	Hu-	0r	.	0A	Hu-	0r	.
1F	Hu-	.	.	.	.	.	.	.	.
=129	=129	=129	=129	=129	=129	=129	=129	=129	=129
0F	-ma-	1c	-ma-	0r	.	1A	-ma-	0r	.
.	.	[1c	-num	.	.	[1A	-num	.	.
=130	=130	=130	=130	=130	=130	=130	=130	=130	=130
1F	-num	1c]	.	0r	.	1A]	.	0r	.
2.F\	que	1c	que	.	.	2.A/	que	.	.
4E\	.	.	.	.	.	4G/	.	.	.
=131	=131	=131	=131	=131	=131	=131	=131	=131	=131
2F\	.	0d	de-	0r	.	2A/	.	0r	.
1G	de-	.	.	.	.	1B-	de-	.	.
4F\	.	.	.	.	.	4A/	.	.	.
4E\	.	.	.	.	.	4G/	.	.	.
=132	=132	=132	=132	=132	=132	=132	=132	=132	=132
0D	-o	0d	-o	0r	.	2B-\	.	0r	.
.	.	.	.	.	.	2.A/	-o	.	.
.	.	.	.	.	.	4G/	.	.	.
.	.	.	.	.	.	4F/	.	.	.
.	.	.	.	.	.	4E/	.	.	.
=133	=133	=133	=133	=133	=133	=133	=133	=133	=133
2r	.	2r	.	0r	.	2D/	.	0r	.
2BB-/	con-	2D/	con-	.	.	2d\	con-	.	.
2C/	-ci-	2E/	-ci-	.	.	2c\	-ci-	.	.
2D\	-li-	2F/	-li-	.	.	2A/	-li-	.	.
=134	=134	=134	=134	=134	=134	=134	=134	=134	=134
4GG/	-a-	2G/	-a-	0r	.	1B-	-a-	0r	.
4AA/	.	.	.	.	.	.	.	.	.
4BB-/	.	4D/	.	.	.	.	.	.	.
4C/	.	4E/	.	.	.	.	.	.	.
4D\	.	4F/	.	.	.	2.A/	.	.	.
4E-i\	.	4G/	.	.	.	.	.	.	.
[2D\	.	[2A/	.	.	.	.	.	.	.
.	.	.	.	.	.	4G/	.	.	.
=135	=135	=135	=135	=135	=135	=135	=135	=135	=135
2D\]	.	4A/]	.	0r	.	4F/	.	0r	.
.	.	4B-\	.	.	.	4E/	.	.	.
2BB-/	-re	2.G/	-re	.	.	1D	-re	.	.
1AA	ge-	.	.	.	.	.	.	.	.
.	.	4F#i/	.	.	.	.	.	.	.
.	.	4F#i/	ge-	.	.	2C/	ge-	.	.
.	.	4E/	.	.	.	.	.	.	.
=136	=136	=136	=136	=136	=136	=136	=136	=136	=136
1GG	-nus,	2G/	-nus,	0r	.	2D/	-nus,	0r	.
.	.	2B-\	con-	.	.	2d\	con-	.	.
1r	.	2c\	-ci-	.	.	2e\	-ci-	.	.
.	.	2d\	-li-	.	.	2f\	-li-	.	.
=137	=137	=137	=137	=137	=137	=137	=137	=137	=137
0r	.	4G/	-a-	0r	.	2g\	-a-	0r	.
.	.	4A/	.	.	.	.	.	.	.
.	.	4B-\	.	.	.	4G/	.	.	.
.	.	4c\	.	.	.	4A/	.	.	.
.	.	4d\	.	.	.	4B-\	.	.	.
.	.	4e-i\	.	.	.	4c\	.	.	.
.	.	[2d\	.	.	.	4d\	.	.	.
.	.	.	.	.	.	4e\	.	.	.
=138	=138	=138	=138	=138	=138	=138	=138	=138	=138
2r	.	2d\]	.	0r	.	4f\	.	0r	.
.	.	.	.	.	.	4d\	.	.	.
2BB-/	con-	2B-\	-re	.	.	2.g\	.	.	.
2C/	-ci-	1A	ge-	.	.	.	.	.	.
.	.	.	.	.	.	4f#i\	.	.	.
2D\	-li-	.	.	.	.	4f#i\	.	.	.
.	.	.	.	.	.	4e\	.	.	.
=139	=139	=139	=139	=139	=139	=139	=139	=139	=139
4GG/	-a-	1G	-nus,	0B-	A-	2g\	-re	0r	.
4AA/	.	.	.	.	.	.	.	.	.
4BB-/	.	.	.	.	.	4d\	ge-	.	.
4C/	.	.	.	.	.	4e\	.	.	.
4D\	.	1r	.	.	.	4f\	.	.	.
4E-i\	.	.	.	.	.	4g\	.	.	.
[2D\	.	.	.	.	.	[2f\	.	.	.
=140	=140	=140	=140	=140	=140	=140	=140	=140	=140
2D\]	.	0A	ge-	0F	-ve	2f\]	.	0r	.
2BB-/	-re	.	.	.	.	2d\	.	.	.
1AA	ge-	.	.	.	.	1c	.	.	.
=141	=141	=141	=141	=141	=141	=141	=141	=141	=141
0GG	-nus,	1.B-	.	1G	Ma-	2B-\	.	0b-	A-
.	.	.	.	.	.	1G	.	.	.
.	.	.	.	1G	-ri-	.	.	.	.
.	.	4A/	.	.	.	4F/	.	.	.
.	.	4G/	.	.	.	4E/	.	.	.
=142	=142	=142	=142	=142	=142	=142	=142	=142	=142
2r	.	1B-	-nus,	0d	.	0D	-nus,	0f	-ve
2D\	con-	.	.	.	.	.	.	.	.
1F	-ci-	1A	.	.	.	.	.	.	.
=143	=143	=143	=143	=143	=143	=143	=143	=143	=143
2E-\	-li-	2r	.	0e-i	.	1C	ge-	1g	Ma-
2C/	.	2c\	con-	.	.	.	.	.	.
2.E-i\	-a-	2B-\	-ci-	.	.	[1G	.	1g	-ri-
.	.	2G/	-li-	.	.	.	.	.	.
4D\	.	.	.	.	.	.	.	.	.
=144	=144	=144	=144	=144	=144	=144	=144	=144	=144
1BB-	.	1B-	-a-	0d	-a,	1G]	.	0dd	.
1D	-re	1A	-re	.	.	1F	.	.	.
=145	=145	=145	=145	=145	=145	=145	=145	=145	=145
2C/	ge-	2r	.	0r	.	1c	-nus,	0ee-i	.
2AA/	.	2A/	ge-	.	.	.	.	.	.
2.C/	.	2G/	.	.	.	2r	.	.	.
.	.	2E-/	.	.	.	2c\	ge-	.	.
4BB-/	.	.	.	.	.	.	.	.	.
=146	=146	=146	=146	=146	=146	=146	=146	=146	=146
0GG	-nus,	2.G/	.	0r	.	2B-\	.	0dd	-a,
.	.	.	.	.	.	2G/	.	.	.
.	.	4F/	.	.	.	.	.	.	.
.	.	2.D/	.	.	.	1B-	.	.	.
.	.	4E/	.	.	.	.	.	.	.
=147	=147	=147	=147	=147	=147	=147	=147	=147	=147
1r	.	2.F/	.	0r	.	1A	-nus.	0r	.
.	.	4G/	.	.	.	.	.	.	.
[1D	Lac-	1A	-nus,	.	.	2r	.	.	.
.	.	.	.	.	.	[2f\	Lac-	.	.
=148	=148	=148	=148	=148	=148	=148	=148	=148	=148
2D\]	.	2r	.	0r	.	2f\]	.	0r	.
2D\	-te	1A	Lac-	.	.	2f\	-te	.	.
1D	tu-	.	.	.	.	1f	tu-	.	.
.	.	2A/	-te	.	.	.	.	.	.
=149	=149	=149	=149	=149	=149	=149	=149	=149	=149
1C	-o,	1A	tu-	0r	.	1e	-o,	0r	.
[1E-	qui-	1G	-o,	.	.	[1g	qui	.	.
=150	=150	=150	=150	=150	=150	=150	=150	=150	=150
1E-]	.	0B-	qui-	0r	.	1g]	.	0r	.
1D	-te,	.	.	.	.	2f\	te,	.	.
.	.	.	.	.	.	2d\	qui	.	.
=151	=151	=151	=151	=151	=151	=151	=151	=151	=151
2r	.	1A	-te,	0r	.	2.f\	cunc-	0r	.
2D\	qui	.	.	.	.	.	.	.	.
.	.	.	.	.	.	4e\	.	.	.
2.F\	cunc-	2r	.	.	.	4c\	.	.	.
.	.	.	.	.	.	4A/	.	.	.
.	.	2A/	qui	.	.	[2c\	.	.	.
4E\	.	.	.	.	.	.	.	.	.
=152	=152	=152	=152	=152	=152	=152	=152	=152	=152
2.C/	-ta	2.c\	cunc-	0r	.	4c\]	.	0r	.
.	.	.	.	.	.	4d\	.	.	.
.	.	.	.	.	.	4e\	.	.	.
4D\	.	4B-\	.	.	.	4f\	.	.	.
4E\	.	2G/	-ta	.	.	2.g\	.	.	.
4F\	.	.	.	.	.	.	.	.	.
[2G\	e-	[2B-\	e-	.	.	.	.	.	.
.	.	.	.	.	.	4f\	.	.	.
=153	=153	=153	=153	=153	=153	=153	=153	=153	=153
4G\]	.	2B-\]	.	1r	.	2.d\	.	0r	.
4F\	-le-	.	.	.	.	.	.	.	.
2.D\	-men-	2A/	-le-	.	.	.	.	.	.
.	.	.	.	.	.	4c\	.	.	.
.	.	2B-\	-men-	1d	gra-	4d\	.	.	.
4C/	.	.	.	.	.	4e\	.	.	.
4D\	.	2F/	.	.	.	[2f\	.	.	.
4E\	.	.	.	.	.	.	.	.	.
=154	=154	=154	=154	=154	=154	=154	=154	=154	=154
2F\	-ta	2A/	-ta	2c\	-ti-	2f\]	.	0r	.
2G\	cre-	2B-\	cre-	2B-\	-a-	2d\	-ta	.	.
1E	-a-	1G	-a-	1c	-ple-	2e\	e-	.	.
.	.	.	.	.	.	2g\	-le-	.	.
=155	=155	=155	=155	=155	=155	=155	=155	=155	=155
0D	-rat,	0A	-rat,	0d	-na,	2f\	-men-	1r	.
.	.	.	.	.	.	2.d\	-ta-	.	.
.	.	.	.	.	.	.	.	1dd	gra-
.	.	.	.	.	.	4c\	.	.	.
.	.	.	.	.	.	4d\	.	.	.
.	.	.	.	.	.	4e\	.	.	.
=156	=156	=156	=156	=156	=156	=156	=156	=156	=156
0r	.	1r	.	0r	.	2f\	.	2cc\	-ti-
.	.	.	.	.	.	2g\	-cre-	2b-\	-a-
.	.	1A	Pa-	.	.	1e	-a-	1cc	-ple-
=157	=157	=157	=157	=157	=157	=157	=157	=157	=157
1D	Pa-	2.F/	-vis-	0r	.	0d	-rat,	0dd	-na,
.	.	4E/	.	.	.	.	.	.	.
1BB-	-vis-	2F/	-ti	.	.	.	.	.	.
.	.	[2G/	vi-	.	.	.	.	.	.
=158	=158	=158	=158	=158	=158	=158	=158	=158	=158
2.C/	.	2G/]	.	0r	.	0r	.	0r	.
.	.	2.A/	.	.	.	.	.	.	.
4BB-/	.	.	.	.	.	.	.	.	.
2C/	-ti	.	.	.	.	.	.	.	.
.	.	4G/	.	.	.	.	.	.	.
[2D\	vi-	4F/	.	.	.	.	.	.	.
.	.	4E/	.	.	.	.	.	.	.
=159	=159	=159	=159	=159	=159	=159	=159	=159	=159
4D\]	.	2D/	-lis,	0r	.	1d	Pa-	0r	.
4C/	.	.	.	.	.	.	.	.	.
4BB-/	.	2.d\	vi-	.	.	.	.	.	.
4AA/	.	.	.	.	.	.	.	.	.
2GG/	-lis,	.	.	.	.	1B-	.	.	.
.	.	4c\	.	.	.	.	.	.	.
2G\	vi-	4B-\	.	.	.	.	.	.	.
.	.	4A/	.	.	.	.	.	.	.
=160	=160	=160	=160	=160	=160	=160	=160	=160	=160
2E\	.	2G/	.	0r	.	2.c\	-vis-	0r	.
2.F\	.	1A	.	.	.	.	.	.	.
.	.	.	.	.	.	4B-\	.	.	.
.	.	.	.	.	.	2c\	-ti	.	.
4E\	.	.	.	.	.	.	.	.	.
4D\	.	2F/	.	.	.	[2d\	vi-	.	.
4C/	.	.	.	.	.	.	.	.	.
=161	=161	=161	=161	=161	=161	=161	=161	=161	=161
1BB-	-lis,	1B-	-lis,	0r	.	4d\]	.	0r	.
.	.	.	.	.	.	4c\	.	.	.
.	.	.	.	.	.	4B-\	.	.	.
.	.	.	.	.	.	4A/	.	.	.
[1B-	vi-	2r	.	.	.	1G	-lis	.	.
.	.	[2d\	cul-	.	.	.	.	.	.
=162	=162	=162	=162	=162	=162	=162	=162	=162	=162
2B-\]	.	2d\]	.	0r	.	1r	.	0r	.
4A\	.	2d\	-mi-	.	.	.	.	.	.
4G\	.	.	.	.	.	.	.	.	.
1G	-lis	1d	-ne	.	.	2r	.	.	.
.	.	.	.	.	.	[2G/	cul-	.	.
=163	=163	=163	=163	=163	=163	=163	=163	=163	=163
2r	.	1.e	tec-	0r	.	2G/]	.	0r	.
1C	cul-	.	.	.	.	2G/	-mi-	.	.
.	.	.	.	.	.	1G	-ne	.	.
2C/	-mi-	4d\	.	.	.	.	.	.	.
.	.	4e\	.	.	.	.	.	.	.
=164	=164	=164	=164	=164	=164	=164	=164	=164	=164
1C	-ne	2c\	.	0r	.	1.A	tec-	0r	.
.	.	2A/	.	.	.	.	.	.	.
[1D	tec-	1A	-ta	.	.	.	.	.	.
.	.	.	.	.	.	4G/	.	.	.
.	.	.	.	.	.	4A/	.	.	.
=165	=165	=165	=165	=165	=165	=165	=165	=165	=165
2D\]	.	1.d	ca-	0r	.	2F/	.	0r	.
4C/	.	.	.	.	.	2D/	-ta	.	.
4D\	.	.	.	.	.	.	.	.	.
2BB-/	.	.	.	.	.	1D	ca-	.	.
2GG/	-ta	4c\	.	.	.	.	.	.	.
.	.	4d\	.	.	.	.	.	.	.
=166	=166	=166	=166	=166	=166	=166	=166	=166	=166
2.GG/	ca-	2B-\	-sae,	1r	.	1G	-sae,	0r	.
.	.	2.d\	cul-	.	.	.	.	.	.
4AA/	.	.	.	.	.	.	.	.	.
4BB-/	.	.	.	1d	Do-	1r	.	.	.
4C/	.	4c\	-mi-	.	.	.	.	.	.
4D\	.	2B-\	-ne	.	.	.	.	.	.
4E\	.	.	.	.	.	.	.	.	.
=167	=167	=167	=167	=167	=167	=167	=167	=167	=167
2F\	.	2A/	tec-	2c\	-mi-	0r	.	0r	.
1G	.	2G/	-ta	2B-\	-nus	.	.	.	.
.	.	1A	ca-	1c	te-	.	.	.	.
2F#i\	.	.	.	.	.	.	.	.	.
=168	=168	=168	=168	=168	=168	=168	=168	=168	=168
1G	.	2B-\	.	0G	-cum	2r	.	1r	.
.	.	4G/	.	.	.	2.d\	cul-	.	.
.	.	4A/	.	.	.	.	.	.	.
1GG	-sae,	4B-\	.	.	.	.	.	1dd	Do-
.	.	4c\	.	.	.	4c\	-mi-	.	.
.	.	4d\	.	.	.	2B-\	-ne	.	.
.	.	4e\	.	.	.	.	.	.	.
=169	=169	=169	=169	=169	=169	=169	=169	=169	=169
1r	.	2f\	.	0r	.	2A/	tec-	2cc\	-mi-
.	.	2g\	.	.	.	2G/	-ta	2b-\	-nus
1C	ca-	2.c\	.	.	.	2A/	ca-	1cc	te-
.	.	.	.	.	.	[2G/	.	.	.
.	.	4d\	.	.	.	.	.	.	.
=170	=170	=170	=170	=170	=170	=170	=170	=170	=170
[0Cl	-sae.	[0el	-sae.	[0cl	cum.	1G]	.	[0gl	-cum.
.	.	.	.	.	.	2E/	.	.	.
.	.	.	.	.	.	2C/	.	.	.
=171	=171	=171	=171	=171	=171	=171	=171	=171	=171
0C]	.	0e]	.	0c]	.	0Gl	-sae.	0g]	.
!!LO:LB:i:g=z
=172||	=172||	=172||	=172||	=172||	=172||	=172||	=172||	=172||	=172||
*>C	*>C	*>C	*>C	*>C	*>C	*>C	*>C	*>C	*>C
*clefF4	*	*clefGv2	*	*clefGv2	*	*clefGv2	*	*clefG2	*
*k[b-]	*	*k[b-]	*	*k[b-]	*	*k[b-]	*	*k[b-]	*
*M2/1	*	*M2/1	*	*M2/1	*	*M2/1	*	*M2/1	*
*met(C|)	*	*met(C|)	*	*met(C|)	*	*met(C|)	*	*met(C|)	*
!!section: Tertia pars: Nunc celi regina
!!!OMD: Tertia pars: Nunc celi regina
!	!	!	!	!LO:TX:Z=12:X=-40:t=Canon at the upper octave (1 breve)	!	!	!	!	!
1r	.	1c	Nunc	0r	.	0r	.	0r	.
1C	Nunc	1c	ce-	.	.	.	.	.	.
=173	=173	=173	=173	=173	=173	=173	=173	=173	=173
1C	ce-	2.G/	-li	0r	.	1G	Nunc	0r	.
.	.	4A/	.	.	.	.	.	.	.
2.GG/	-li	4B-\	.	.	.	1G	ce-	.	.
.	.	4c\	.	.	.	.	.	.	.
.	.	[2d\	.	.	.	.	.	.	.
4AA/	.	.	.	.	.	.	.	.	.
=174	=174	=174	=174	=174	=174	=174	=174	=174	=174
4BB-/	.	2d\]	.	0r	.	2.D/	-li	0r	.
4C/	.	.	.	.	.	.	.	.	.
1D	.	2.f\	re-	.	.	.	.	.	.
.	.	.	.	.	.	4E/	.	.	.
.	.	.	.	.	.	4F/	.	.	.
.	.	4e\	.	.	.	4G/	.	.	.
2C/	re-	[2e\	-gi-	.	.	[2A/	.	.	.
=175	=175	=175	=175	=175	=175	=175	=175	=175	=175
2D\	-gi-	4e\]	.	0r	.	2A/]	.	0r	.
.	.	4d\	.	.	.	.	.	.	.
2F\	-na,	1d	-na,	.	.	2F/	re-	.	.
1E	tu-	.	.	.	.	2G/	-gi-	.	.
.	.	2c#i\	tu-	.	.	2G/	-na,	.	.
=176	=176	=176	=176	=176	=176	=176	=176	=176	=176
1D	-is	2d\	-is	0r	.	1A	tu-	0r	.
.	.	2f\	pro-	.	.	.	.	.	.
1r	.	2.g\	-gen-	.	.	2.G/	-is	.	.
.	.	4f\	-ti-	.	.	4A/	.	.	.
=177	=177	=177	=177	=177	=177	=177	=177	=177	=177
2r	.	2d\	-bus	0r	.	4B-\	.	0r	.
.	.	.	.	.	.	4c\	.	.	.
2BB-/	pro-	2f\	.	.	.	2d\	.	.	.
2.C/	-gen-	1e	o-	.	.	2G/	.	.	.
.	.	.	.	.	.	2A/	pro	.	.
4BB-/	-ti-	.	.	.	.	.	.	.	.
=178	=178	=178	=178	=178	=178	=178	=178	=178	=178
2GG/	-bus	1d	-ra,	0r	.	2B-\	gen-	0r	.
2BB-/	.	.	.	.	.	2.G/	.	.	.
1AA	o-	1r	.	.	.	.	.	.	.
.	.	.	.	.	.	4F#i/	.	.	.
.	.	.	.	.	.	4F#i/	-ti-	.	.
.	.	.	.	.	.	4E/	.	.	.
=179	=179	=179	=179	=179	=179	=179	=179	=179	=179
1GG	-ra,	2r	.	0r	.	2G/	-bus	0r	.
.	.	2B-\	pro	.	.	2d\	o-	.	.
2r	.	2.c\	gen-	.	.	2c\	.	.	.
2F\	pro	.	.	.	.	2A/	-ra,	.	.
.	.	4B-\	-ti-	.	.	.	.	.	.
=180	=180	=180	=180	=180	=180	=180	=180	=180	=180
2.G\	gen-	2G/	-bus	1B-	A-	2B-\	pro-	0r	.
.	.	2B-\	.	.	.	2.d\	-gen-	.	.
4F\	-ti-	.	.	.	.	.	.	.	.
2D\	-bus	1A	o-	1F	-ve	.	.	.	.
.	.	.	.	.	.	4c\	.	.	.
2F\	.	.	.	.	.	2A/	-ti-	.	.
=181	=181	=181	=181	=181	=181	=181	=181	=181	=181
1E-	-o-	1G	-ra,	2G/	Ma-	2G/	-bus	1b-	A-
.	.	.	.	2G/	-ri-	2.B-\	o-	.	.
1D	-ra,	2r	.	1d	.	.	.	1f	-ve
.	.	.	.	.	.	4A/	.	.	.
.	.	2A/	pro	.	.	2F/	-ra,	.	.
=182	=182	=182	=182	=182	=182	=182	=182	=182	=182
1r	.	2c\	gen-	1e-i	.	2E-/	pro	2g/	Ma-
.	.	4G/	.	.	.	2.G/	gen-	2g/	-ri-
.	.	4A/	.	.	.	.	.	.	.
2r	.	4B-\	.	1d	-a,	.	.	1dd	.
.	.	4c\	.	.	.	4F/	.	.	.
2BB-/	pro	2d\	-ti-	.	.	4D/	-ti-	.	.
.	.	.	.	.	.	4F/	.	.	.
=183	=183	=183	=183	=183	=183	=183	=183	=183	=183
2.C/	gen-	2c\	-bus	1r	.	2E-i/	-bus	1ee-i	.
.	.	4G/	o-	.	.	2.G/	o-	.	.
4BB-/	-ti-	4A/	.	.	.	.	.	.	.
2GG/	-bus	4B-\	.	1d	gra-	.	.	1dd	-a,
.	.	4c\	.	.	.	4F/	.	.	.
2BB-/	.	4d\	.	.	.	2D/	-ra,	.	.
.	.	4B-\	.	.	.	.	.	.	.
=184	=184	=184	=184	=184	=184	=184	=184	=184	=184
1AA	o-	2c\	.	1c	-ti-	2E/	gen-	1r	.
.	.	2A/	-ra,	.	.	2F/	-ti-	.	.
1GG	-ra,	2r	.	1B-	-a	2G/	-bus	1dd	gra-
.	.	2d\	pro	.	.	2B-\	.	.	.
=185	=185	=185	=185	=185	=185	=185	=185	=185	=185
1r	.	2e\	gen-	1c	ple-	1A	o-	1cc	-ti-
.	.	2f\	-ti-	.	.	.	.	.	.
2r	.	2.g\	-bus	1d	-na,	1G	-ra,	1b-	-a
2G\	pro	.	.	.	.	.	.	.	.
.	.	4f\	.	.	.	.	.	.	.
=186	=186	=186	=186	=186	=186	=186	=186	=186	=186
2A\	gen-	1e	o-	1r	.	1.r	.	1cc	ple-
2c\	-ti-	.	.	.	.	.	.	.	.
4B-\	-bus	1d	-ra,	1d	Do-	.	.	1dd	-na,
4G\	.	.	.	.	.	.	.	.	.
2B-\	.	.	.	.	.	2d\	tu-	.	.
=187	=187	=187	=187	=187	=187	=187	=187	=187	=187
1A	o-	1r	.	1c	-mi-	2e\	-is	1r	.
.	.	.	.	.	.	2f\	pro	.	.
1G	-ra,	2r	.	1B-	-nus	2.g\	gen-	1dd	Do-
.	.	2d\	gen-	.	.	.	.	.	.
.	.	.	.	.	.	4f\	.	.	.
=188	=188	=188	=188	=188	=188	=188	=188	=188	=188
0r	.	2e\	-ti-	1c	te-	4e\	-ti-	1cc	-mi-
.	.	.	.	.	.	4d\	.	.	.
.	.	2.g\	-bus	.	.	4e\	-bus	.	.
.	.	.	.	.	.	4c\	.	.	.
.	.	.	.	1G	-cum,	1d	o-	1b-	-nus
.	.	4f\	.	.	.	.	.	.	.
.	.	2d\	o-	.	.	.	.	.	.
=189	=189	=189	=189	=189	=189	=189	=189	=189	=189
1C	Quos-	2e\	-ra,	0r	.	2c\	-ra,	1cc	te-
.	.	1c	Quos-	.	.	1e	Quos-	.	.
2C/	-que	.	.	.	.	.	.	1g	-cum,
[2C/	tu-	2c\	-que	.	.	2e\	-que	.	.
=190	=190	=190	=190	=190	=190	=190	=190	=190	=190
4C/]	.	1c	tu-	0r	.	1e	tu-	0r	.
4D\	.	.	.	.	.	.	.	.	.
4E\	.	.	.	.	.	.	.	.	.
4F\	.	.	.	.	.	.	.	.	.
2G\	-us	1B-	-us	.	.	2.d\	-us	.	.
[2D\	ju-	.	.	.	.	.	.	.	.
.	.	.	.	.	.	4c\	.	.	.
=191	=191	=191	=191	=191	=191	=191	=191	=191	=191
4D\]	.	2.A/	ju-	0r	.	4d\	.	0r	.
4C/	.	.	.	.	.	4e\	.	.	.
4D\	.	.	.	.	.	2.f\	.	.	.
4E\	.	4G/	.	.	.	.	.	.	.
4F\	.	4A/	.	.	.	.	.	.	.
4G\	.	4B-\	.	.	.	4e\	.	.	.
[2F\	.	[2A/	.	.	.	2d\	.	.	.
=192	=192	=192	=192	=192	=192	=192	=192	=192	=192
2F\]	.	4A/]	.	1r	.	4c\	ju-	0r	.
.	.	4G/	.	.	.	4B-\	.	.	.
2D\	.	1F	.	.	.	1B-	.	.	.
1C	.	.	.	2c\	be-	.	.	.	.
.	.	2E/	.	2c\	-ne-	2A/	.	.	.
=193	=193	=193	=193	=193	=193	=193	=193	=193	=193
1BB-	-vit	2F/	-vit	1d	-dic-	1B-	-vit,	1r	.
.	.	1B-	fi-	.	.	.	.	.	.
2r	.	.	.	1c	-ta	1F	.	2cc\	be-
2F\	fi-	2A/	.	.	.	.	.	2cc\	-ne-
=194	=194	=194	=194	=194	=194	=194	=194	=194	=194
2D\	-li-	2.B-\	.	1B-	tu	2r	.	1dd	-dic-
2BB-/	-us,	.	.	.	.	2.B-\	ju-	.	.
.	.	4A/	.	.	.	.	.	.	.
1F	ip-	2F/	.	1r	.	.	.	1cc	-ta
.	.	.	.	.	.	4A/	.	.	.
.	.	2c\	-li-	.	.	4A/	.	.	.
.	.	.	.	.	.	4G/	.	.	.
=195	=195	=195	=195	=195	=195	=195	=195	=195	=195
1BB-	-sa,	2.d\	-us,	2r	.	1B-	-vit,	1b-	tu
.	.	.	.	2B-\	in	.	.	.	.
.	.	4c\	.	.	.	.	.	.	.
2r	.	1A	.	2.c\	mu-	1F	.	1r	.
2F\	fi-	.	.	.	.	.	.	.	.
.	.	.	.	4B-\	-li-	.	.	.	.
=196	=196	=196	=196	=196	=196	=196	=196	=196	=196
2F\	-li-	1r	.	2A/	-e-	1r	.	2r	.
2G\	-us,	.	.	2G/	-ri-	.	.	2b-\	in
2.A\	ip-	2r	.	1F	-bus,	2r	.	2.cc\	mu-
.	.	2F/	fi-	.	.	2c\	fi-	.	.
4G\	.	.	.	.	.	.	.	4b-\	-li-
=197	=197	=197	=197	=197	=197	=197	=197	=197	=197
2F\	-sa	2F/	-li-	2r	.	2d\	-li-	2a/	-e-
2E\	ju-	2G/	-us,	2c\	in	2e\	-us,	2g/	-ri-
1D	-va,	4A/	ip-	2.d\	mu-	2.f\	ip-	1f	-bus,
.	.	4F/	.	.	.	.	.	.	.
.	.	[2f\	.	.	.	.	.	.	.
.	.	.	.	4c\	-li-	4e\	.	.	.
=198	=198	=198	=198	=198	=198	=198	=198	=198	=198
2r	.	4f\]	.	2B-\	-e-	2d\	-sa	2r	.
.	.	4d\	.	.	.	.	.	.	.
2A\	fi-	4e\	.	2A/	-ri-	2c\	.	2cc\	in
.	.	4f\	.	.	.	.	.	.	.
2.B-\	-li-	2g\	-sa,	1G	-bus,	4B-\	ju-	2.dd\	mu-
.	.	.	.	.	.	4G/	.	.	.
.	.	[2G/	ju-	.	.	[2d\	.	.	.
4A\	-us,	.	.	.	.	.	.	4cc\	-li-
=199	=199	=199	=199	=199	=199	=199	=199	=199	=199
2G\	ip-	2G/]	.	2r	.	4d\]	.	2b-\	-e-
.	.	.	.	.	.	4e\	.	.	.
2F\	-sa	2A/	.	2d\	al-	4f\	.	2a/	-ri-
.	.	.	.	.	.	4e\	.	.	.
1E-i	ju-	2B-\	.	2e-i\	-le-	1g	.	1g	-bus,
.	.	2G/	.	2c\	.	.	.	.	.
=200	=200	=200	=200	=200	=200	=200	=200	=200	=200
1D	-va,	2B-\	.	1d	-lu-	3f\V	-va,	2r	.
.	.	.	.	.	.	3d\	al-	.	.
.	.	2A/	-va,	.	.	.	.	2dd\	al-
.	.	.	.	.	.	3f\Z	-le-	.	.
2r	.	2r	.	1c	-ia,	3e-i\V	-lu-	2ee-i\	-le-
.	.	.	.	.	.	3c\	.	.	.
2AA/	al-	2A/	ip-	.	.	.	.	2cc\	.
.	.	.	.	.	.	3e-i\Z	.	.	.
=201	=201	=201	=201	=201	=201	=201	=201	=201	=201
1BB-	-le-	2F/	-sa	2r	.	1d	-ia,	1dd	-lu-
.	.	2.G/	ju-	2B-\	al-	.	.	.	.
1AA	-lu-	.	.	2c\	-le-	2r	.	1cc	-ia,
.	.	4F#i/	.	.	.	.	.	.	.
.	.	4F#i/	.	2A/	.	2c\	al-	.	.
.	.	4E/	.	.	.	.	.	.	.
=202	=202	=202	=202	=202	=202	=202	=202	=202	=202
2GG/	-ia,	1G	-va,	1B-	-lu-	3d\V	-le-	2r	.
.	.	.	.	.	.	3B-\	.	.	.
2G\	al-	.	.	.	.	.	.	2b-\	al-
.	.	.	.	.	.	3d\Z	.	.	.
2A\	-le-	1r	.	1A	-ia,	3c\V	-lu-	2cc\	-le-
.	.	.	.	.	.	3A/	.	.	.
2F\	-lu-	.	.	.	.	.	.	2a/	.
.	.	.	.	.	.	3c\Z	.	.	.
=203	=203	=203	=203	=203	=203	=203	=203	=203	=203
1G	-ia,	2r	.	1.r	.	4B-\	-ia,	1b-	-lu-
.	.	.	.	.	.	4G/	.	.	.
.	.	2G/	al-	.	.	2g\	al-	.	.
1r	.	2A/	-le-	.	.	2e\	-le-	1a	-ia,
.	.	2F/	-lu-	2A/	al-	2f\	-lu-	.	.
=204	=204	=204	=204	=204	=204	=204	=204	=204	=204
2.GG/	al-	2G/	-ia,	2.B-\	-le-	2d\	-ia,	1.r	.
.	.	2.d\	al-	.	.	1G	al-	.	.
4AA/	.	.	.	4c\	.	.	.	.	.
4BB-/	.	.	.	2B-\	.	.	.	.	.
4C/	.	4e\	.	.	.	.	.	.	.
2D\	.	2f\	.	[2A/	-lu-	2F/	-le-	2a/	al-
=205	=205	=205	=205	=205	=205	=205	=205	=205	=205
2.GG/	-le-	2B-\	-le-	4A/]	.	2G/	-lu-	2.b-\	-le-
.	.	.	.	4G/	.	.	.	.	.
.	.	2.d\	-lu-	1G	.	2D/	-ia,	.	.
4AA/	.	.	.	.	.	.	.	4cc\	.
4BB-/	.	.	.	.	.	1d	al-	2b-\	.
4C/	.	4e\	.	.	.	.	.	.	.
2D\	.	2f\	.	2F#i/	.	.	.	[2a/	-lu-
=206	=206	=206	=206	=206	=206	=206	=206	=206	=206
2E-i\	-lu-	1e-	.	1G	-ia,	2B-\	-le-	4a/]	.
.	.	.	.	.	.	.	.	4g/	.
2C/	.	.	.	.	.	2c\	.	1g	.
1D	-ia,	1d	-ia,	2r	.	1A	-lu-	.	.
.	.	.	.	2A/	al-	.	.	2f#i/	.
=207	=207	=207	=207	=207	=207	=207	=207	=207	=207
2.GG/	al-	2r	.	2.B-\	-le-	2G/	-ia,	1g	-ia,
.	.	1G	al-	.	.	2.d\	al-	.	.
4AA/	.	.	.	4c\	.	.	.	.	.
4BB-/	.	.	.	2B-\	.	.	.	2r	.
4C/	.	.	.	.	.	4e\	.	.	.
2D\	.	2F/	-le-	[2A/	-lu-	2f\	.	2a/	al-
=208	=208	=208	=208	=208	=208	=208	=208	=208	=208
2.GG/	-le-	2G/	-lu-	4A/]	.	2B-\	-le-	2.b-\	-le-
.	.	.	.	4G/	.	.	.	.	.
.	.	2D/	-ia,	1G	.	2.d\	-lu-	.	.
4AA/	.	.	.	.	.	.	.	4cc\	.
4BB-/	.	1d	al-	.	.	.	.	2b-\	.
4C/	.	.	.	.	.	4e\	.	.	.
2D\	.	.	.	2F#i/	.	2f\	.	[2a/	-lu-
=209	=209	=209	=209	=209	=209	=209	=209	=209	=209
2E-i\	-lu-	2B-\	-le-	1G	-ia,	1e-	.	4a/]	.
.	.	.	.	.	.	.	.	4g/	.
2C/	.	2c\	.	.	.	.	.	1g	.
1D	.	1A	-lu-	1r	.	1d	-ia,	.	.
.	.	.	.	.	.	.	.	2f#i/	.
=210	=210	=210	=210	=210	=210	=210	=210	=210	=210
2GG/	-ia,	1G	-ia,	1G	al-	2r	.	1g	-ia,
4G\	al-	.	.	.	.	2B-\	al-	.	.
4F\	.	.	.	.	.	.	.	.	.
4E-i\	.	2C/	al-	1G	-le-	2c\	-le-	1r	.
4D\	.	.	.	.	.	.	.	.	.
[2C/	.	2G/	.	.	.	[2e-i\	-lu-	.	.
=211	=211	=211	=211	=211	=211	=211	=211	=211	=211
2C/]	.	2C/	-le-	0G	-lu-	2e-\]	.	1g	al-
2BB-/	-le-	2D/	.	.	.	2d\	.	.	.
1C	-lu-	1E-i	-lu-	.	.	1c	.	1g	-le-
=212	=212	=212	=212	=212	=212	=212	=212	=212	=212
[0GGl	-ia.	[0Dl	-ia.	[0Gl	-ia.	[0B-l	-ia.	0g	-lu-
=213	=213	=213	=213	=213	=213	=213	=213	=213	=213
0GG]	.	0D]	.	0G]	.	0B-]	.	0gl	-ia.
==	==	==	==	==	==	==	==	==	==
*-	*-	*-	*-	*-	*-	*-	*-	*-	*-
!!!RDF**kern: l=long note in original notation
!!!RDF**kern: i=editorial accidental
!!!ENC:	Jesse Rodin; Victoria Chang 2011/05/16; Jesse Rodon 2013/02/15 (lyrics)
!!!END:	2011/05/16/
!!!EED:	Jesse Rodin
!!!EEV:	2013/03/01/
!!attribution-level@Jos: 1 (secure)
!!!ONB:	Translated from MusicXML and edited on 2011/08/15/ by Craig Sapp
!!muse2ps: u^(2) @{OTL2}^C^@{COM}\n@{SCT}^I150v100,100,100,100,110i2I150c150Q4
!!!ONB: April 2013 Concert
